X:1
T:Resting in Jesus
T:Resting in Jesus
T:Barney E. Warren, pub.1911
T:Daniel S. Warner
T:PUBLIC DOMAIN
T:PUBLIC DOMAIN
C:Barney E. Warren, pub.1911
Z:Daniel S. Warner
Z:PUBLIC DOMAIN
%%score 1 ( 2 3 )
L:1/8
Q:1/4=100
M:3/4
K:Ab
V:1 treble nm="Treble"
V:2 bass nm="Bass"
V:3 bass 
V:1
 [CE]3/2 [CE]/ | [CA]2 [EA]2 [EB]2 | [Ec]2 [Ec]2 [Ec]3/2 [Ec]/ | [Fd]2 [Fd]2 [Fd]2 | %4
w: 1.~I am|rest- ing in|Je- sus, hal- le-|lu- jah! I|
w: 2.~I am|rest- ing in|Je- sus, oh, how|sweet are my|
w: 3.~I am|rest- ing in|Je- sus, my Re-|deem- er and|
w: 4.~I am|rest- ing in|Je- sus, what a|bless- ed re-|
 [Ec]4 [Ec]3/2 [Ed]/ | [Ee]2 [Ec]2 [EB]2 | [FA]2 [FA]2 [FA]3/2 [FA]/ | [FB]2 [FB]2 [Ac]2 | %8
w: know That the|blood of a-|tone- ment makes me|whit- er than|
w: years! He has|ban- ished my|trou- bles, and re-|moved all my|
w: Friend, And the|peace of His|king- dom shall en-|dure with- out|
w: pose! I am|liv- ing in|tri- umph o- ver|death and all|
 [GB]4 [Ec]3/2 [DB]/ | [CA]2 [EA]2 [EB]2 | [Ec]2 [Ec]2 [Ec]3/2 [Ec]/ | [Fd]2 [Fd]2 [Fd]2 | %12
w: snow; I will|trust in my|Sav- ior, and a-|bide His con-|
w: tears; I am|safe in His|king- dom, and a|heav- en- ly|
w: end; Oh, my|soul is trans-|port- ed in His|fa- vor di-|
w: foes; I can|smile at the|tem- pest, hal- le-|lu- jah to|
 [Ec]4 [Ec]3/2 [Ed]/ | [Ee]2 [Ec]2 [EA]2 | [FA]2 [Fd]2 [EA]3/2 [Ec]/ | [DB]2 [CA]2 [DG]2 | [CA]4 | %17
w: trol; For He|loved me so|dear- ly that He|ran- somed my|soul.|
w: calm Now a-|bides in my|bos- om— glo- ry|be to the|Lamb!|
w: vine, And there’s|mus- ic, sweet|mus- ic in this|bos- om of|mine.|
w: God! I am|free, and for-|ev- er I will|sing of the|blood.|
"^Refrain" [CE]3/2 [CE]/ | [CA]2 [EA]2 [EB]2 | [Ec]4 [Ec]3/2 [Ec]/ | [Fd]2 [DF]2 [=DA]2 | %21
w: Oh, my|rest is so|sweet, As I|sit at Thy|
w: ||||
w: ||||
w: ||||
 [EB]4 [Ec]3/2 [Ed]/ | [Ee]2 [Ec]2 [EB]2 | [FA]2 [FA]2 [DF]3/2 [DF]/ | [CE]2 [Ec]2 [DB]2 | [CA]4 |] %26
w: feet; I am|rest- ing, dear|Je- sus, In Thy|fa- vor com-|plete.|
w: |||||
w: |||||
w: |||||
V:2
 [A,,A,]3/2 [A,,A,]/ | [A,,A,]2 [C,A,]2 [E,G,]2 | A,2 A,2 A,3/2 A,/ | [D,A,]2 [D,A,]2 [D,A,]2 | %4
 A,4 A,3/2 [A,B,]/ | [A,C]2 A,2 [C,A,]2 | [D,A,]2 [D,D]2 [D,D]3/2 [D,D]/ | %7
 [B,,=D]2 [B,,D]2 [B,,D]2 | [E,E]4 [E,A,]3/2 [E,G,]/ | [A,,A,]2 [C,A,]2 [E,G,]2 | %10
 A,2 A,2 A,3/2 A,/ | [D,A,]2 [D,A,]2 [D,A,]2 | A,4 A,3/2 [A,B,]/ | [A,C]2 A,2 [C,A,]2 | %14
 [D,A,]2 [D,A,]2 [C,A,]3/2 [C,A,]/ | [E,G,]2 [E,A,]2 [E,B,]2 | [A,,A,]4 | [A,,A,]3/2 [A,,A,]/ | %18
 [A,,A,]2 [C,A,]2 [E,G,]2 | A,4 A,3/2 A,/ | [D,A,]2 [D,A,]2 [F,A,]2 | [E,G,]4 A,3/2 [A,B,]/ | %22
 [A,C]2 A,2 [C,A,]2 | [D,A,]2 [D,D]2 [D,A,]3/2 [D,A,]/ | [E,A,]2 [E,A,]2 [E,G,]2 | [A,,E,]4 |] %26
V:3
 x2 | x6 | A,2 A,2 A,3/2 A,/ | x6 | A,4 A,3/2 z/ | z2 A,2 z2 | x6 | x6 | x6 | x6 | %10
 A,2 A,2 A,3/2 A,/ | x6 | A,4 A,3/2 z/ | z2 A,2 z2 | x6 | x6 | x4 | x2 | x6 | A,4 A,3/2 A,/ | x6 | %21
 z4 A,3/2 z/ | z2 A,2 z2 | x6 | x6 | x4 |] %26

